build/img/main/telegram.svg

<svg width="86" height="86" viewBox="0 0 86 86" fill="none" xmlns="http://www.w3.org/2000/svg">
<path d="M25.4429 48.3452L8.63774 43.1215C5.00492 42.0151 4.98473 39.5206 9.45177 37.7301L74.9301 12.5168C78.7311 10.9745 80.8839 12.9258 79.6528 17.8143L68.5054 70.2527C67.725 73.9877 65.4713 74.8796 62.3431 73.1562L45.1813 60.4959L37.1824 68.194C36.3616 68.9853 35.6956 69.6626 34.4308 69.8302C33.1728 70.0046 32.1368 69.6291 31.3766 67.5503L25.5237 48.2983L25.4429 48.3519V48.3452Z" fill="#3C3C3C"/>
</svg>

<svg width="86" height="86" fill="none" xmlns="http://www.w3.org/2000/svg"><path d="M25.443 48.345L8.638 43.121c-3.633-1.106-3.653-3.6.814-5.39L74.93 12.516c3.801-1.542 5.954.409 4.723 5.297l-11.148 52.44c-.78 3.735-3.034 4.627-6.162 2.903l-17.162-12.66-7.999 7.698c-.82.791-1.486 1.469-2.751 1.636-1.258.175-2.294-.2-3.054-2.28l-5.853-19.252-.081.054v-.007z" fill="#3C3C3C"/></svg>
